src/images/proxmox-symbol-x.svg

<?xml version="1.0" encoding="UTF-8" standalone="no"?>
<!-- Created with Inkscape (http://www.inkscape.org/) -->
<svg id="svg5876" height="260" viewBox="0,0,259.99998,259.99998" width="260" xmlns="http://www.w3.org/2000/svg" xmlns:xlink="http://www.w3.org/1999/xlink" xmlns:dc="http://purl.org/dc/elements/1.1/" xmlns:cc="http://creativecommons.org/ns#" xmlns:rdf="http://www.w3.org/1999/02/22-rdf-syntax-ns#" xmlns:svg="http://www.w3.org/2000/svg" xmlns:sodipodi="http://sodipodi.sourceforge.net/DTD/sodipodi-0.dtd" xmlns:inkscape="http://www.inkscape.org/namespaces/inkscape" inkscape:version="0.92.2 (5c3e80d, 2017-08-06)" sodipodi:docname="Proxmox_symbol_favicon.svg" inkscape:export-filename="S:\Proxmox\Marketing\Logo\Favicon\Proxmox_symbol_favicon_260.png" inkscape:export-xdpi="96" inkscape:export-ydpi="96">
 <clipPath id="clipPath3102-4-5">
  <rect id="rect3104-1-3" height="326.40991" transform="matrix(.73449161 .67861776 -.78497193 .61953133 0 0)" width="436.40189" x="-82.999916" y="-347.71387"/>
 </clipPath>
 <sodipodi:namedview pagecolor="#ffffff" bordercolor="#666666" borderopacity="1.0" inkscape:pageopacity="0.0" inkscape:pageshadow="2" inkscape:zoom="1.4" inkscape:cx="-45.895771" inkscape:cy="6.3650844" inkscape:document-units="px" inkscape:current-layer="layer1" showgrid="false" inkscape:window-width="2560" inkscape:window-height="1377" inkscape:window-x="-8" inkscape:window-y="-8" inkscape:window-maximized="1" units="px" fit-margin-top="0" fit-margin-left="0" fit-margin-right="0" fit-margin-bottom="0"/>
 <metadata id="metadata5881">
  <rdf:RDF>
   <cc:Work rdf:about="">
    <dc:format>image/svg+xml</dc:format>
    <dc:type rdf:resource="http://purl.org/dc/dcmitype/StillImage"/>
    <dc:title/>
   </cc:Work>
  </rdf:RDF>
 </metadata>
 <g id="layer1" transform="translate(-2.603202 -774.18762)" inkscape:label="Layer 1" inkscape:groupmode="layer">
  <g id="g3021" transform="matrix(9.45675 0 0 9.45675 -18.704755 -8896.4297)" inkscape:export-xdpi="300" inkscape:export-ydpi="300">
   <g id="g7607-5" clip-path="url(#clipPath3102-4-5)" font-family="Helion" font-size="144" letter-spacing="0" line-height="125%" transform="matrix(-.04778455 0 0 .04778455 29.203266 1024.7667)" word-spacing="0">
    <path id="path7609-8" d="m276.30443 226.6231 190.58784-209.602495c-7.39324-7.3925179-16.00465-13.2011729-25.83431-17.42598195-9.8304-4.22414015-20.39156-6.37699515-31.68359-6.45857095-11.99338.0917448-22.98109 2.4680153-32.96314 7.12881886-9.98263 4.66147074-18.655 11.05910904-26.0171 19.19293404l-74.09086 80.915015-73.60342-80.915015c-7.6265-8.133835-16.50198-14.5314802-26.62641-19.1929557-10.12463-4.6608083-21.07169-7.0370717-32.84124-7.1287972-11.29242.0815863-21.8536 2.2344429-31.6836 6.45857839-9.83005 4.22480401-18.441478 10.03345661-25.834313 17.42597451l190.593403 209.596915" inkscape:connector-curvature="0" sodipodi:nodetypes="ccccccccccccc"/>
   </g>
   <g id="g7611-6" clip-path="url(#clipPath3102-4-5)" font-family="Helion" font-size="144" letter-spacing="0" line-height="125%" transform="matrix(.04778455 0 0 -.04778455 2.796945 1047.9575)" word-spacing="0">
    <path id="path7613-7" d="m276.30443 226.6231 190.58784-209.602495c-7.39324-7.3925179-16.00465-13.2011729-25.83431-17.42598195-9.8304-4.22414015-20.39156-6.37699515-31.68359-6.45857095-11.99338.0917448-22.98109 2.4680153-32.96314 7.12881886-9.98263 4.66147074-18.655 11.05910904-26.0171 19.19293404l-74.09086 80.915015-73.60342-80.915015c-7.6265-8.133835-16.50198-14.5314802-26.62641-19.1929557-10.12463-4.6608083-21.07169-7.0370717-32.84124-7.1287972-11.29242.0815863-21.8536 2.2344429-31.6836 6.45857839-9.83005 4.22480401-18.441478 10.03345661-25.834313 17.42597451l190.593403 209.596915" sodipodi:nodetypes="ccccccccccccc" inkscape:connector-curvature="0"/>
   </g>
   <path id="path7615-7" d="m15.23405 1036.3622-6.8601967-7.5231c-.3990192-.4256-.8633807-.7604-1.3930839-1.0042-.5297195-.2439-1.1024686-.3682-1.7182481-.3731-.590815 0-1.1433739.1168-1.6576769.338-.5143056.221-.9648526.5249-1.3516436.9118l6.9622457 7.6508-6.9622457 7.6508c.38679.3989.837338.7103 1.3516436.934.514303.2237 1.0668619.3373 1.6576769.3411.6173744 0 1.1933086-.129 1.7278076-.373.5344943-.2439.9956679-.5787 1.3835244-1.0041l6.8601817-7.549" fill="#e57000" font-family="Helion" font-size="1059.612793" letter-spacing="0" line-height="125%" word-spacing="0" inkscape:connector-curvature="0" sodipodi:nodetypes="cccccccccscscc"/>
   <path id="path7617-2" d="m16.76594 1036.3622 6.860196-7.5231c.399019-.4256.86338-.7604 1.393084-1.0042.529719-.2439 1.10247-.3682 1.718247-.3731.590818 0 1.143377.1168 1.657677.338.51431.221.964857.5249 1.351646.9118l-6.962247 7.6508 6.962247 7.6508c-.386789.3989-.837336.7103-1.351646.934-.5143.2237-1.066859.3373-1.657673.3411-.617375 0-1.193311-.129-1.727809-.373-.534496-.2439-.99567-.5787-1.383526-1.0041l-6.860182-7.549" fill="#e57000" font-family="Helion" font-size="1059.612793" letter-spacing="0" line-height="125%" word-spacing="0" sodipodi:nodetypes="cccccccccscscc" inkscape:connector-curvature="0"/>
  </g>
 </g>
</svg>

<?xml version="1.0" encoding="UTF-8" standalone="no"?>
<!-- Created with Inkscape (http://www.inkscape.org/) -->

<svg
   xmlns:dc="http://purl.org/dc/elements/1.1/"
   xmlns:cc="http://creativecommons.org/ns#"
   xmlns:rdf="http://www.w3.org/1999/02/22-rdf-syntax-ns#"
   xmlns:svg="http://www.w3.org/2000/svg"
   xmlns="http://www.w3.org/2000/svg"
   xmlns:xlink="http://www.w3.org/1999/xlink"
   xmlns:sodipodi="http://sodipodi.sourceforge.net/DTD/sodipodi-0.dtd"
   xmlns:inkscape="http://www.inkscape.org/namespaces/inkscape"
   width="260"
   height="260"
   viewBox="0 0 259.99998 259.99998"
   id="svg5876"
   version="1.1"
   inkscape:version="0.92.2 (5c3e80d, 2017-08-06)"
   sodipodi:docname="Proxmox_symbol_favicon.svg"
   inkscape:export-filename="S:\Proxmox\Marketing\Logo\Favicon\Proxmox_symbol_favicon_260.png"
   inkscape:export-xdpi="96"
   inkscape:export-ydpi="96">
  <defs
     id="defs5878">
    <color-profile
       name="ISO-Coated-v2--ECI-"
       xlink:href="/usr/share/color/icc/ISOcoated_v2_eci.icc"
       id="color-profile2" />
    <clipPath
       id="clipPath3102-4"
       clipPathUnits="userSpaceOnUse">
      <rect
         transform="matrix(0.73449161,0.67861776,-0.78497193,0.61953133,0,0)"
         y="-347.71387"
         x="-82.999916"
         height="326.40991"
         width="436.40189"
         id="rect3104-1"
         style="fill:#e57000;fill-opacity:1;fill-rule:evenodd;stroke:none" />
    </clipPath>
    <clipPath
       id="clipPath6434"
       clipPathUnits="userSpaceOnUse">
      <rect
         transform="matrix(0.73449161,0.67861776,-0.78497193,0.61953133,0,0)"
         y="-347.71387"
         x="-82.999916"
         height="326.40991"
         width="436.40189"
         id="rect6436"
         style="fill:#e57000;fill-opacity:1;fill-rule:evenodd;stroke:none" />
    </clipPath>
    <clipPath
       id="clipPath3102-4-1"
       clipPathUnits="userSpaceOnUse">
      <rect
         transform="matrix(0.73449161,0.67861776,-0.78497193,0.61953133,0,0)"
         y="-347.71387"
         x="-82.999916"
         height="326.40991"
         width="436.40189"
         id="rect3104-1-7"
         style="fill:#e57000;fill-opacity:1;fill-rule:evenodd;stroke:none" />
    </clipPath>
    <clipPath
       id="clipPath4737"
       clipPathUnits="userSpaceOnUse">
      <rect
         transform="matrix(0.73449161,0.67861776,-0.78497193,0.61953133,0,0)"
         y="-347.71387"
         x="-82.999916"
         height="326.40991"
         width="436.40189"
         id="rect4739"
         style="fill:#e57000;fill-opacity:1;fill-rule:evenodd;stroke:none" />
    </clipPath>
    <clipPath
       id="clipPath3102-4-6"
       clipPathUnits="userSpaceOnUse">
      <rect
         transform="matrix(0.73449161,0.67861776,-0.78497193,0.61953133,0,0)"
         y="-347.71387"
         x="-82.999916"
         height="326.40991"
         width="436.40189"
         id="rect3104-1-2"
         style="fill:#e57000;fill-opacity:1;fill-rule:evenodd;stroke:none" />
    </clipPath>
    <clipPath
       id="clipPath4793"
       clipPathUnits="userSpaceOnUse">
      <rect
         transform="matrix(0.73449161,0.67861776,-0.78497193,0.61953133,0,0)"
         y="-347.71387"
         x="-82.999916"
         height="326.40991"
         width="436.40189"
         id="rect4795"
         style="fill:#e57000;fill-opacity:1;fill-rule:evenodd;stroke:none" />
    </clipPath>
    <clipPath
       id="clipPath3102-4-9"
       clipPathUnits="userSpaceOnUse">
      <rect
         transform="matrix(0.73449161,0.67861776,-0.78497193,0.61953133,0,0)"
         y="-347.71387"
         x="-82.999916"
         height="326.40991"
         width="436.40189"
         id="rect3104-1-5"
         style="fill:#e57000;fill-opacity:1;fill-rule:evenodd;stroke:none" />
    </clipPath>
    <clipPath
       id="clipPath4821"
       clipPathUnits="userSpaceOnUse">
      <rect
         transform="matrix(0.73449161,0.67861776,-0.78497193,0.61953133,0,0)"
         y="-347.71387"
         x="-82.999916"
         height="326.40991"
         width="436.40189"
         id="rect4823"
         style="fill:#e57000;fill-opacity:1;fill-rule:evenodd;stroke:none" />
    </clipPath>
    <clipPath
       id="clipPath3102-4-5"
       clipPathUnits="userSpaceOnUse">
      <rect
         transform="matrix(0.73449161,0.67861776,-0.78497193,0.61953133,0,0)"
         y="-347.71387"
         x="-82.999916"
         height="326.40991"
         width="436.40189"
         id="rect3104-1-3"
         style="fill:#e57000;fill-opacity:1;fill-rule:evenodd;stroke:none" />
    </clipPath>
    <clipPath
       id="clipPath4846"
       clipPathUnits="userSpaceOnUse">
      <rect
         transform="matrix(0.73449161,0.67861776,-0.78497193,0.61953133,0,0)"
         y="-347.71387"
         x="-82.999916"
         height="326.40991"
         width="436.40189"
         id="rect4848"
         style="fill:#e57000;fill-opacity:1;fill-rule:evenodd;stroke:none" />
    </clipPath>
  </defs>
  <sodipodi:namedview
     id="base"
     pagecolor="#ffffff"
     bordercolor="#666666"
     borderopacity="1.0"
     inkscape:pageopacity="0.0"
     inkscape:pageshadow="2"
     inkscape:zoom="1.4"
     inkscape:cx="-45.895771"
     inkscape:cy="6.3650844"
     inkscape:document-units="px"
     inkscape:current-layer="layer1"
     showgrid="false"
     inkscape:window-width="2560"
     inkscape:window-height="1377"
     inkscape:window-x="-8"
     inkscape:window-y="-8"
     inkscape:window-maximized="1"
     units="px"
     fit-margin-top="0"
     fit-margin-left="0"
     fit-margin-right="0"
     fit-margin-bottom="0" />
  <metadata
     id="metadata5881">
    <rdf:RDF>
      <cc:Work
         rdf:about="">
        <dc:format>image/svg+xml</dc:format>
        <dc:type
           rdf:resource="http://purl.org/dc/dcmitype/StillImage" />
        <dc:title></dc:title>
      </cc:Work>
    </rdf:RDF>
  </metadata>
  <g
     inkscape:label="Layer 1"
     inkscape:groupmode="layer"
     id="layer1"
     transform="translate(-2.6032015,-774.18762)">
    <g
       id="g3021"
       transform="matrix(9.45675,0,0,9.45675,-18.704755,-8896.4297)"
       inkscape:export-xdpi="300"
       inkscape:export-ydpi="300">
      <g
         style="font-style:normal;font-variant:normal;font-weight:normal;font-stretch:normal;font-size:144px;line-height:125%;font-family:Helion;-inkscape-font-specification:Helion;letter-spacing:0px;word-spacing:0px;fill:#000000;fill-opacity:1;stroke:none"
         id="g7607-5"
         clip-path="url(#clipPath3102-4-5)"
         transform="matrix(-0.04778455,0,0,0.04778455,29.203266,1024.7667)">
        <path
           d="M 276.30443,226.6231 466.89227,17.020605 C 459.49903,9.6280871 450.88762,3.8194321 441.05796,-0.40537695 431.22756,-4.6295171 420.6664,-6.7823721 409.37437,-6.8639479 397.38099,-6.7722031 386.39328,-4.3959326 376.41123,0.26487096 366.4286,4.9263417 357.75623,11.32398 350.39413,19.457805 L 276.30327,100.37282 202.69985,19.457805 C 195.07335,11.32397 186.19787,4.9263248 176.07344,0.2648493 165.94881,-4.395959 155.00175,-6.7722224 143.2322,-6.8639479 131.93978,-6.7823616 121.3786,-4.629505 111.5486,-0.40536951 101.71855,3.8194345 93.107122,9.6280871 85.714287,17.020605 L 276.30769,226.61752"
           id="path7609-8"
           inkscape:connector-curvature="0"
           sodipodi:nodetypes="ccccccccccccc"
           style="fill:#000000;fill-opacity:1" />
      </g>
      <g
         transform="matrix(0.04778455,0,0,-0.04778455,2.7969453,1047.9575)"
         clip-path="url(#clipPath3102-4-5)"
         id="g7611-6"
         style="font-style:normal;font-variant:normal;font-weight:normal;font-stretch:normal;font-size:144px;line-height:125%;font-family:Helion;-inkscape-font-specification:Helion;letter-spacing:0px;word-spacing:0px;fill:#000000;fill-opacity:1;stroke:none">
        <path
           style="fill:#000000;fill-opacity:1"
           sodipodi:nodetypes="ccccccccccccc"
           inkscape:connector-curvature="0"
           id="path7613-7"
           d="M 276.30443,226.6231 466.89227,17.020605 C 459.49903,9.6280871 450.88762,3.8194321 441.05796,-0.40537695 431.22756,-4.6295171 420.6664,-6.7823721 409.37437,-6.8639479 397.38099,-6.7722031 386.39328,-4.3959326 376.41123,0.26487096 366.4286,4.9263417 357.75623,11.32398 350.39413,19.457805 L 276.30327,100.37282 202.69985,19.457805 C 195.07335,11.32397 186.19787,4.9263248 176.07344,0.2648493 165.94881,-4.395959 155.00175,-6.7722224 143.2322,-6.8639479 131.93978,-6.7823616 121.3786,-4.629505 111.5486,-0.40536951 101.71855,3.8194345 93.107122,9.6280871 85.714287,17.020605 L 276.30769,226.61752" />
      </g>
      <path
         style="font-style:normal;font-variant:normal;font-weight:normal;font-stretch:normal;font-size:1059.61279297px;line-height:125%;font-family:Helion;-inkscape-font-specification:Helion;letter-spacing:0px;word-spacing:0px;fill:#e57000;fill-opacity:1;stroke:none"
         d="m 15.23405,1036.3622 v 0 l -6.8601967,-7.5231 c -0.3990192,-0.4256 -0.8633807,-0.7604 -1.3930839,-1.0042 -0.5297195,-0.2439 -1.1024686,-0.3682 -1.7182481,-0.3731 -0.590815,0 -1.1433739,0.1168 -1.6576769,0.338 -0.5143056,0.221 -0.9648526,0.5249 -1.3516436,0.9118 l 6.9622457,7.6508 -6.9622457,7.6508 c 0.38679,0.3989 0.837338,0.7103 1.3516436,0.934 0.514303,0.2237 1.0668619,0.3373 1.6576769,0.3411 0.6173744,0 1.1933086,-0.129 1.7278076,-0.373 0.5344943,-0.2439 0.9956679,-0.5787 1.3835244,-1.0041 l 6.8601817,-7.549"
         id="path7615-7"
         inkscape:connector-curvature="0"
         sodipodi:nodetypes="cccccccccscscc" />
      <path
         sodipodi:nodetypes="cccccccccscscc"
         inkscape:connector-curvature="0"
         id="path7617-2"
         d="m 16.76594,1036.3622 v 0 l 6.860196,-7.5231 c 0.399019,-0.4256 0.86338,-0.7604 1.393084,-1.0042 0.529719,-0.2439 1.10247,-0.3682 1.718247,-0.3731 0.590818,0 1.143377,0.1168 1.657677,0.338 0.51431,0.221 0.964857,0.5249 1.351646,0.9118 l -6.962247,7.6508 6.962247,7.6508 c -0.386789,0.3989 -0.837336,0.7103 -1.351646,0.934 -0.5143,0.2237 -1.066859,0.3373 -1.657673,0.3411 -0.617375,0 -1.193311,-0.129 -1.727809,-0.373 -0.534496,-0.2439 -0.99567,-0.5787 -1.383526,-1.0041 l -6.860182,-7.549"
         style="font-style:normal;font-variant:normal;font-weight:normal;font-stretch:normal;font-size:1059.61279297px;line-height:125%;font-family:Helion;-inkscape-font-specification:Helion;letter-spacing:0px;word-spacing:0px;fill:#e57000;fill-opacity:1;stroke:none" />
    </g>
  </g>
</svg>
